X:14926
T:Scatter the Mud
M:6/8
L:1/8
K:A Dorian
d|eAA BAA|eAA ABd|eAA BAA|dBG GBd|!
eAA BAA|eAA AGE|GAB Bge|dBA A2:|!
d|eaa egg|dBA ABd|eaa egg|dBG GBd|!
eaf g2e|dBA AGE|GAB Bge|dBA A2:|!


